X:92
T:Planxty Susan Davidson
M:6/8
L:1/8
C:© Paul Gitlitz 1984
R:Jig
B:Giblitz Fancy
N: A dear friend, and an experiment in numerological composition.
K:A
"A"c2e cAE|"D"d2a fad|"A"c2f "E"e2d|"A"cBA "E"GFE:|!
|"A"A,2E CEA|"D"D2A FAd|"E"B2B"F#m"c2c|"D"dcd "E"B3|!
"A"A,2E CEA|"D"D2A FAd|"E"BB/B/B "F#m"cc/c/c|"D"dd/d/d "E7"e3|]
